X: 5
T: Scatter The Mud
R: jig
M: 6/8
L: 1/8
K: Edor
|:BEE FEF|BEE EFA|BEE FEF|BAF DFA|
BEE FEF|BEE EDB,|DEF A2A|AFE EFA:|
|:Bee dcB|AFE DEA|Bee d2e|fed efd|
Bee fed|AFE D2E|DEF A2B|AFE EFA:|


Tune 728	Setting 27790

